X: 18819
T: Il Cane Sul Pavimento
R: jig
M: 6/8
K: Gmajor
EGG DBB|d>cB d>cB|cAA G3|dcB cAA|d>ee dBG|D>GG BAG|
BGG d>BG|AAF G3:|d4 (3edc|BGG AAG|FDD G2 G|
BAG AGF|EEC D3|GBG ddd|edc B>cA|G6:|

